X:0665
T:Loch Erroch Side.
M:C
L:1/8
Q:1/4=120
I: || ||
N:bar 4 wrong?
N:last note of part 1 printed as D not D2
Z:Jack Campin * www.campin.me.uk * 2009
K:D
D|FAAB      d>edA                |   B>ABd            efeE                |\
  FAAB      defe                 |   dBAF            TE2         E2       |
  FAA>B     d>edc                |   BABd             e/d/e/f/   eE       |\
  FAA>B     df/g//a// {g}f>e     |{e}dB/d/ {B}AG/F/  TE2         D2      ||
  fa df/g/  a/g/f/g/     a2      |   gb       eg/a/   b/a/g/a/   ba/g/    |\
  fa df/g/  a/g/f/g/     ad      |   A>dfd           Te2     {de}d2       |
  fa df/g/  a/g/f/g/     b/a/g/f/|   gb       eg/a/   b/a/g/a/   c'/b/a/g/|\
  f<ae<f    d<AB>b               |   d<AdF          TE2      {DE}D2      |]
<end>
<start>
